SVG_Azure_Grouped/Networking/Load Balancer Health Probe.svg

<?xml version="1.0" encoding="UTF-8" standalone="no"?>
<!-- Generated by Microsoft Visio, SVG Export Load Balancer Health Probe.svg Page-1 -->

<svg
   xmlns:dc="http://purl.org/dc/elements/1.1/"
   xmlns:cc="http://creativecommons.org/ns#"
   xmlns:rdf="http://www.w3.org/1999/02/22-rdf-syntax-ns#"
   xmlns:svg="http://www.w3.org/2000/svg"
   xmlns="http://www.w3.org/2000/svg"
   xmlns:sodipodi="http://sodipodi.sourceforge.net/DTD/sodipodi-0.dtd"
   xmlns:inkscape="http://www.inkscape.org/namespaces/inkscape"
   width="0.70860749in"
   height="0.78736919in"
   viewBox="0 0 51.019792 56.690869"
   xml:space="preserve"
   class="st5"
   version="1.1"
   id="svg49"
   sodipodi:docname="Load Balancer Health Probe.svg"
   style="font-size:12px;overflow:visible;color-interpolation-filters:sRGB;fill:none;fill-rule:evenodd;stroke-linecap:square;stroke-miterlimit:3"
   inkscape:version="0.92.5 (2060ec1f9f, 2020-04-08)"><metadata
   id="metadata53"><rdf:RDF><cc:Work
       rdf:about=""><dc:format>image/svg+xml</dc:format><dc:type
         rdf:resource="http://purl.org/dc/dcmitype/StillImage" /></cc:Work></rdf:RDF></metadata><sodipodi:namedview
   pagecolor="#ffffff"
   bordercolor="#666666"
   borderopacity="1"
   objecttolerance="10"
   gridtolerance="10"
   guidetolerance="10"
   inkscape:pageopacity="0"
   inkscape:pageshadow="2"
   inkscape:window-width="640"
   inkscape:window-height="480"
   id="namedview51"
   showgrid="false"
   inkscape:zoom="1.7193066"
   inkscape:cx="34.01556"
   inkscape:cy="23.279613"
   inkscape:window-x="0"
   inkscape:window-y="0"
   inkscape:window-maximized="0"
   inkscape:current-layer="svg49" />
	<style
   type="text/css"
   id="style2">
	<![CDATA[
		.st1 {fill:url(#grad0-6);stroke:none;stroke-linecap:butt;stroke-width:12.24}
		.st2 {fill:#000000;fill-opacity:0.5;stroke:none;stroke-linecap:butt;stroke-width:12.24}
		.st3 {fill:#000000;fill-opacity:0.2;stroke:none;stroke-linecap:butt;stroke-width:12.24}
		.st4 {fill:url(#grad0-14);stroke:none;stroke-linecap:butt;stroke-width:12.24}
		.st5 {fill:none;fill-rule:evenodd;font-size:12px;overflow:visible;stroke-linecap:square;stroke-miterlimit:3}
	]]>
	</style>

	<defs
   id="Patterns_And_Gradients">
		<linearGradient
   id="grad0-6"
   x1="0"
   y1="43.509872"
   x2="19.606111"
   y2="43.509872"
   gradientTransform="scale(0.61307415,1.6311241)"
   gradientUnits="userSpaceOnUse">
			<stop
   offset="0"
   stop-color="#32bedd"
   stop-opacity="1"
   id="stop4" />
			<stop
   offset="0.18"
   stop-color="#32caea"
   stop-opacity="1"
   id="stop6" />
			<stop
   offset="0.41"
   stop-color="#32d2f2"
   stop-opacity="1"
   id="stop8" />
			<stop
   offset="0.78"
   stop-color="#32d4f5"
   stop-opacity="1"
   id="stop10" />
		</linearGradient>
		<linearGradient
   id="grad0-14"
   x1="0"
   y1="87.528163"
   x2="15.42048"
   y2="87.528163"
   gradientUnits="userSpaceOnUse">
			<stop
   offset="0"
   stop-color="#1b93eb"
   stop-opacity="1"
   id="stop13" />
			<stop
   offset="1"
   stop-color="#6bb9f2"
   stop-opacity="1"
   id="stop15" />
		</linearGradient>
	</defs>
	<g
   id="g47"
   transform="translate(-12.240154,-12.24343)">
		<title
   id="title19">Page-1</title>
		<g
   id="group17878-1"
   transform="translate(12.24,-34.0157)">
			<title
   id="title21">Load Balancer Health Probe.17878</title>
			<g
   id="group17879-2">
				<title
   id="title23">g10</title>
				<g
   id="shape17880-3"
   transform="translate(19.5024)">
					<title
   id="title25">path2</title>
					<path
   d="M 8.39,70.97 H 3.63 L 0,102.95 h 12.02 z"
   class="st1"
   id="path27"
   inkscape:connector-curvature="0"
   style="fill:url(#grad0-6);stroke:none;stroke-width:12.23999977;stroke-linecap:butt" />
				</g>
				<g
   id="shape17881-7"
   transform="translate(8.16378,-16.2142)">
					<title
   id="title30">path4</title>
					<path
   d="M 34.7,87.98 C 34.7,78.34 26.99,70.52 17.35,70.52 7.71,70.52 0,78.34 0,87.98 c 0,6.35 3.4,11.91 8.62,14.97 0.56,-0.91 1.02,-1.82 1.47,-2.61 C 5.9,97.85 3.06,93.31 3.06,87.98 c 0,-7.94 6.46,-14.4 14.4,-14.4 7.94,0 14.4,6.46 14.4,14.4 0,5.22 -2.83,9.87 -7.03,12.36 0.46,0.79 1.02,1.7 1.48,2.61 4.98,-3.06 8.39,-8.62 8.39,-14.97 z"
   class="st2"
   id="path32"
   inkscape:connector-curvature="0"
   style="fill:#000000;fill-opacity:0.5;stroke:none;stroke-width:12.23999977;stroke-linecap:butt" />
				</g>
				<g
   id="shape17882-9"
   transform="translate(0,-9.07087)">
					<title
   id="title35">path6</title>
					<path
   d="m 12.7,102.84 c 0.45,-0.91 1.02,-1.82 1.47,-2.73 C 7.48,96.26 3.06,89 3.06,80.73 c 0,-12.25 10.09,-22.34 22.45,-22.34 12.36,0 22.45,10.09 22.45,22.45 0,8.28 -4.53,15.42 -11.11,19.39 0.45,0.9 1.02,1.81 1.47,2.72 7.6,-4.42 12.7,-12.59 12.7,-22 C 51.02,66.78 39.57,55.33 25.51,55.33 11.45,55.33 0,66.78 0,80.84 c 0,9.3 5.22,17.57 12.7,22 z"
   class="st3"
   id="path37"
   inkscape:connector-curvature="0"
   style="fill:#000000;fill-opacity:0.2;stroke:none;stroke-width:12.23999977;stroke-linecap:butt" />
				</g>
				<g
   id="shape17883-11"
   transform="translate(17.8016,-23.3575)">
					<title
   id="title40">circle8</title>
					<circle
   cx="7.7102399"
   cy="95.238403"
   class="st4"
   id="ellipse42"
   r="7.7102399"
   style="fill:url(#grad0-14);stroke:none;stroke-width:12.23999977;stroke-linecap:butt" />
				</g>
			</g>
		</g>
	</g>
</svg>

<?xml version="1.0" encoding="UTF-8" standalone="no"?>
<!DOCTYPE svg PUBLIC "-//W3C//DTD SVG 1.1//EN" "http://www.w3.org/Graphics/SVG/1.1/DTD/svg11.dtd">
<!-- Generated by Microsoft Visio, SVG Export Load Balancer Health Probe.svg Page-1 -->
<svg xmlns="http://www.w3.org/2000/svg" xmlns:xlink="http://www.w3.org/1999/xlink" xmlns:ev="http://www.w3.org/2001/xml-events"
		width="1.04866in" height="1.42984in" viewBox="0 0 75.5036 102.949" xml:space="preserve" color-interpolation-filters="sRGB"
		class="st5">
	<style type="text/css">
	<![CDATA[
		.st1 {fill:url(#grad0-6);stroke:none;stroke-linecap:butt;stroke-width:12.24}
		.st2 {fill:#000000;fill-opacity:0.5;stroke:none;stroke-linecap:butt;stroke-width:12.24}
		.st3 {fill:#000000;fill-opacity:0.2;stroke:none;stroke-linecap:butt;stroke-width:12.24}
		.st4 {fill:url(#grad0-14);stroke:none;stroke-linecap:butt;stroke-width:12.24}
		.st5 {fill:none;fill-rule:evenodd;font-size:12px;overflow:visible;stroke-linecap:square;stroke-miterlimit:3}
	]]>
	</style>

	<defs id="Patterns_And_Gradients">
		<linearGradient id="grad0-6" x1="0" y1="0" x2="1" y2="0" gradientTransform="rotate(0 0.5 0.5)">
			<stop offset="0" stop-color="#32bedd" stop-opacity="1"/>
			<stop offset="0.18" stop-color="#32caea" stop-opacity="1"/>
			<stop offset="0.41" stop-color="#32d2f2" stop-opacity="1"/>
			<stop offset="0.78" stop-color="#32d4f5" stop-opacity="1"/>
		</linearGradient>
		<linearGradient id="grad0-14" x1="0" y1="0" x2="1" y2="0" gradientTransform="rotate(179.38820557003 0.5 0.5)">
			<stop offset="0" stop-color="#1b93eb" stop-opacity="1"/>
			<stop offset="1" stop-color="#6bb9f2" stop-opacity="1"/>
		</linearGradient>
	</defs>
	<g>
		<title>Page-1</title>
		<g id="group17473-1" transform="translate(12.24,-34.0157)">
			<title>Load Balancer Health Probe.17473</title>
			<g id="group17474-2">
				<title>g10</title>
				<g id="shape17475-3" transform="translate(19.5024,0)">
					<title>path2</title>
					<path d="M8.39 70.97 L3.63 70.97 L0 102.95 L12.02 102.95 L8.39 70.97 Z" class="st1"/>
				</g>
				<g id="shape17476-7" transform="translate(8.16378,-16.2142)">
					<title>path4</title>
					<path d="M34.7 87.98 C34.7 78.34 26.99 70.52 17.35 70.52 C7.71 70.52 0 78.34 0 87.98 C0 94.33 3.4 99.89 8.62
								 102.95 C9.18 102.04 9.64 101.13 10.09 100.34 C5.9 97.85 3.06 93.31 3.06 87.98 C3.06 80.04 9.52 73.58
								 17.46 73.58 C25.4 73.58 31.86 80.04 31.86 87.98 C31.86 93.2 29.03 97.85 24.83 100.34 C25.29 101.13
								 25.85 102.04 26.31 102.95 C31.29 99.89 34.7 94.33 34.7 87.98 Z" class="st2"/>
				</g>
				<g id="shape17477-9" transform="translate(0,-9.07087)">
					<title>path6</title>
					<path d="M12.7 102.84 C13.15 101.93 13.72 101.02 14.17 100.11 C7.48 96.26 3.06 89 3.06 80.73 C3.06 68.48 13.15
								 58.39 25.51 58.39 C37.87 58.39 47.96 68.48 47.96 80.84 C47.96 89.12 43.43 96.26 36.85 100.23 C37.3
								 101.13 37.87 102.04 38.32 102.95 C45.92 98.53 51.02 90.36 51.02 80.95 C51.02 66.78 39.57 55.33 25.51
								 55.33 C11.45 55.33 0 66.78 0 80.84 C0 90.14 5.22 98.41 12.7 102.84 Z" class="st3"/>
				</g>
				<g id="shape17478-11" transform="translate(17.8016,-23.3575)">
					<title>circle8</title>
					<ellipse cx="7.71024" cy="95.2384" rx="7.71024" ry="7.71024" class="st4"/>
				</g>
			</g>
		</g>
	</g>
</svg>
